!!!!SEGMENT: Arc2005-O_pulcherrima_mulierum.krn
!!!id: Arc2005
!!!AGN: Motet
!!!voices: 5
!!!COM: Jacques Arcadelt
!!!OTL: O pulcherrima mulierum
**kern	**kern	**kern	**kern	**kern
*part5	*part4	*part3	*part2	*part1
*staff5	*staff4	*staff3	*staff2	*staff1
*I"Bassus	*I"Tenor II	*I"Tenor I	*I"Altus	*I"Superius
*I'B	*I'T. II	*I'T. I	*I'A	*I'S
*clefF4	*clefGv2	*clefGv2	*clefGv2	*clefG2
*k[]	*k[]	*k[]	*k[]	*k[]
*C:	*C:	*C:	*C:	*C:
*M2/1	*M2/1	*M2/1	*M2/1	*M2/1
*met(C|)	*met(C|)	*met(C|)	*met(C|)	*met(C|)
!!section: Prima pars: O pulcherrima mulierum
!!!OMD: Prima pars: O pulcherrima mulierum
=1	=1	=1	=1	=1
0r	0r	0r	0r	0a
=2	=2	=2	=2	=2
0r	0r	0r	0r	1d
.	.	.	.	[1a
=3	=3	=3	=3	=3
0r	0r	0r	0e	2a]
.	.	.	.	2g
.	.	.	.	1g
=4	=4	=4	=4	=4
0r	0r	0r	1A	2f
.	.	.	.	2e
.	.	.	[1d	[1f
=5	=5	=5	=5	=5
0r	0A	0r	2d]	1f]
.	.	.	2c	.
.	.	.	1c	1e
=6	=6	=6	=6	=6
0r	1D	0r	2B	1d
.	.	.	2A	.
.	[1A	.	[1c	[1e
=7	=7	=7	=7	=7
0E	2A]	0r	1c]	0e]
.	2G	.	.	.
.	1G	.	1B	.
=8	=8	=8	=8	=8
1AA	2F	0r	0A	1c
.	2E	.	.	.
[1D	[1F	.	.	1d
=9	=9	=9	=9	=9
2D]	2F]	0r	1r	1a
2C	2E	.	.	.
1C	2r	.	1e	1g
.	2E	.	.	.
=10	=10	=10	=10	=10
2D	2F	0r	2d	2f
2E	2G	.	1c	1e
1F	2A	.	.	.
.	2D	.	4B	2d
.	.	.	4A	.
=11	=11	=11	=11	=11
0E	2r	[0B	1G	2.e
.	1G	.	.	.
.	.	.	.	4f
.	.	.	1D	4g
.	.	.	.	4a
.	2E	.	.	[2b
=12	=12	=12	=12	=12
1r	2.E	0B]	2G	4b]
.	.	.	.	4a
.	.	.	2A	1a
.	4F	.	.	.
1E	1G	.	1B	.
.	.	.	.	2g
=13	=13	=13	=13	=13
0AA	1E	0c	2A	[0a
.	.	.	2A	.
.	1E	.	1c	.
=14	=14	=14	=14	=14
1.D	1.F	0A	1.d	0a]
2AA	2E	.	[2c	.
=15	=15	=15	=15	=15
1AA	2E	0c	4c]	2r
.	.	.	4B	.
.	2C	.	2A	1e
[1C	[1E	.	2G	.
.	.	.	4C	[2g
.	.	.	4D	.
=16	=16	=16	=16	=16
2C]	2E]	0c	4E	2g]
.	.	.	4F	.
2BB	2D	.	1G	2g
1AA	1C	.	.	1a
.	.	.	2F#i	.
=17	=17	=17	=17	=17
0GG	1r	[0B	0G	0d
.	1D	.	.	.
=18	=18	=18	=18	=18
1r	1.G	0B]	1r	1d
1GG	.	.	2r	[1g
.	2G	.	[2G	.
=19	=19	=19	=19	=19
1.C	2G	0r	2G]	2g]
.	2G	.	2.c	2g
.	2.E	.	.	2g
.	.	.	4B	.
2C	.	.	4c	2g
.	4F	.	4d	.
=20	=20	=20	=20	=20
2.C	4G	0r	4e	2.e
.	4C	.	4f	.
.	2c	.	2.g	.
4D	.	.	.	4f
2E	2B	.	.	1g
.	.	.	4f	.
2C	[2c	.	2e	.
=21	=21	=21	=21	=21
0G	2c]	0r	1d	2r
.	4B	.	.	2d
.	4A	.	.	.
.	1B	.	2r	[1g
.	.	.	2d	.
=22	=22	=22	=22	=22
0C	2c	0r	1.e	2g]
.	2G	.	.	2g
.	2c	.	.	2g
.	2G	.	2c	2e
=23	=23	=23	=23	=23
0r	2A	0r	2c	0f
.	2.B-X	.	2.d	.
.	4A	.	4c	.
.	2F	.	[2c	.
=24	=24	=24	=24	=24
1GG	2G	0r	2c]	1d
.	1G	.	2B	.
[1C	.	.	2c	1e
.	[2c	.	2G	.
=25	=25	=25	=25	=25
2C]	2c]	0E	2G	2.c
2C	2c	.	2G	.
.	.	.	.	4d
2C	2c	.	2G	4e
.	.	.	.	4f
2C	2c	.	2G	[2g
=26	=26	=26	=26	=26
0D	1B	0F	0d	2g]
.	.	.	.	4f
.	.	.	.	4e
.	1A	.	.	1f
=27	=27	=27	=27	=27
0GG	2G	0D	0B	1g
.	2G	.	.	.
.	2G	.	.	2r
.	2G	.	.	2g
=28	=28	=28	=28	=28
1r	1D	0F	0A	2f
.	.	.	.	2d
[1D	2r	.	.	2f
.	[2D	.	.	2f
=29	=29	=29	=29	=29
2D]	4D]	0F	1r	2f
.	4E	.	.	.
2D	4F	.	.	2f
.	4G	.	.	.
1D	2A	.	[1A	1d
.	2B	.	.	.
=30	=30	=30	=30	=30
1.AA	0c	[0E	2A]	1e
.	.	.	2A	.
.	.	.	1A	2r
2AA	.	.	.	2c
=31	=31	=31	=31	=31
2C	2r	0E]	2G	2c
2C	2.C	.	2E	2c
1C	.	.	2G	1e
.	4D	.	.	.
.	4E	.	[2G	.
.	4F	.	.	.
=32	=32	=32	=32	=32
0GG	2G	0B	4G]	1d
.	.	.	4A	.
.	2D	.	4B	.
.	.	.	4c	.
.	2G	.	2.d	2r
.	2G	.	.	2d
.	.	.	4e	.
=33	=33	=33	=33	=33
0r	2.F	0c	1f	1.a
.	4G	.	.	.
.	[1A	.	1e	.
.	.	.	.	2a
=34	=34	=34	=34	=34
1D	2A]	0A	1d	2f
.	2G	.	.	2d
2D	1F	.	2r	2.f
2D	.	.	2A	.
.	.	.	.	4g
=35	=35	=35	=35	=35
1.AA	1E	[0c	2A	1.a
.	.	.	2A	.
.	1A	.	1E	.
2AA	.	.	.	4g
.	.	.	.	4f
=36	=36	=36	=36	=36
2C	2.G	0c]	2r	2e
2C	.	.	2G	2e
.	4F	.	.	.
1C	1E	.	2G	2e
.	.	.	2G	2e
=37	=37	=37	=37	=37
[0GG	1D	[0B	1.d	1g
.	[1d	.	.	1g
.	.	.	2c	.
=38	=38	=38	=38	=38
1GG]	2d]	0B]	2B	1.dd
.	2c	.	2A	.
[1G	2B	.	2G	.
.	2A	.	2A	2cc
=39	=39	=39	=39	=39
2G]	0G	0r	0B	2b
2F	.	.	.	2a
2E	.	.	.	2g
2D	.	.	.	2f
=40	=40	=40	=40	=40
2C	1.c	0E	2r	2e
2BB	.	.	2G	2d
2AA	.	.	2A	1c
2GG	2B	.	2B	.
=41	=41	=41	=41	=41
0FF	1A	0F	1.c	1r
.	1A	.	.	2r
.	.	.	2d	2a
=42	=42	=42	=42	=42
0GG	1G	0D	2B	2.b-i
.	.	.	1d	.
.	.	.	.	4a
.	[1d	.	.	4g
.	.	.	.	4f
.	.	.	4c	[2g
.	.	.	4B	.
=43	=43	=43	=43	=43
0D	2d]	[0F	1A	2g]
.	4c	.	.	4f
.	4B	.	.	4e
.	[1A	.	1d	2d
.	.	.	.	[2f
=44	=44	=44	=44	=44
0r	1A]	0F]	1c	4f]
.	.	.	.	4e
.	.	.	.	4d
.	.	.	.	4c
.	2r	.	1A	1d
.	2D	.	.	.
=45	=45	=45	=45	=45
1r	1.G	0E	0B	[0e
[1G	.	.	.	.
.	2F	.	.	.
=46	=46	=46	=46	=46
2G]	2E	0r	1B	1e]
2F	2D	.	.	.
2E	2C	.	2c	2r
2D	[2F	.	4d	2a
.	.	.	4c	.
=47	=47	=47	=47	=47
2D	2F]	1r	4B	2b
.	.	.	4A	.
2C	2E	.	1A	2cc
1BB	1D	1B	.	1dd
.	.	.	2G#i	.
=48	=48	=48	=48	=48
[0AA	0E	1c	1A	1.cc
.	.	1A	[1e	.
.	.	.	.	2b
=49	=49	=49	=49	=49
1AA]	0r	0c	1e]	1a
1AA	.	.	[1e	1a
=50	=50	=50	=50	=50
1.E	1r	0B	2e]	2g
.	.	.	4d	2e
.	.	.	4c	.
.	2r	.	2B	2g
2E	2E	.	2G	2g
=51	=51	=51	=51	=51
2D	2F	0r	2A	2f
2C	2G	.	2.c	1e
1F	1A	.	.	.
.	.	.	4B	.
.	.	.	[2A	2d
=52	=52	=52	=52	=52
1E	1B	0E	2A]	0e
.	.	.	2G	.
[1AA	2.c	.	2.A	.
.	4B	.	4B	.
=53	=53	=53	=53	=53
1AA]	4A	0F	1c	1r
.	4G	.	.	.
.	2A	.	.	.
[1BB-X	2.D	.	[1B-X	[1d
.	4E	.	.	.
=54	=54	=54	=54	=54
1BB-]	1F	0D	1B-]	1d]
1GG	2r	.	1B-i	1d
.	2G	.	.	.
=55	=55	=55	=55	=55
0D	2A	0F	1.A	1d
.	4D	.	.	.
.	4E	.	.	.
.	4F	.	.	1d
.	4G	.	.	.
.	4A	.	2F	.
.	4B	.	.	.
=56	=56	=56	=56	=56
2C	2c	[0E	2G	0e
2AA	2c	.	2A	.
2E	2B	.	2G	.
[2AA	2c	.	2A	.
=57	=57	=57	=57	=57
4AA]	1A	0E_	1c	2r
4BB	.	.	.	.
4C	.	.	.	2e
4D	.	.	.	.
2E	2G	.	2B	2g
2AA	2A	.	[2c	2e
=58	=58	=58	=58	=58
1E	2r	0E]	4c]	1g
.	.	.	4B	.
.	2B	.	4G	.
.	.	.	4A	.
2r	2B	.	2B	2g
2E	2B	.	2E	2g
=59	=59	=59	=59	=59
2E	2E	0r	2r	2g
2E	2B	.	2e	2g
2AA	2c	.	2e	2a
2E	[2B	.	2e	2g
=60	=60	=60	=60	=60
2D	4B]	1r	2A	0r
.	4A	.	.	.
2C	1A	.	2e	.
2D	.	1B	2d	.
2E	2G#i	.	2B	.
=61	=61	=61	=61	=61
0AA	2.A	1c	0e	0r
.	4B	.	.	.
.	2c	1A	.	.
.	[2A	.	.	.
=62	=62	=62	=62	=62
2r	4A]	0c	2.A	1r
.	4B	.	.	.
2.AA	4c	.	.	.
.	4d	.	4B	.
.	2e	.	4c	2r
4BB	.	.	4d	.
4C	[2E	.	[2e	2e
4D	.	.	.	.
=63	=63	=63	=63	=63
2.E	4E]	1B	2e]	1.g
.	4F	.	.	.
.	4G	.	2e	.
4F	4A	.	.	.
2G	2B	1r	2d	.
[2C	[2c	.	[2e	2g
=64	=64	=64	=64	=64
4C]	2c]	0E	2e]	1g
4D	.	.	.	.
4E	2c	.	2e	.
4F	.	.	.	.
2G	2B	.	1e	2g
2C	2c	.	.	[2g
=65	=65	=65	=65	=65
0D	2A	0F	2d	2g]
.	2.d	.	4c	4f#i
.	.	.	4B	4e
.	.	.	1A	2f#i
.	4c	.	.	.
.	8dL	.	.	2f#i
.	8c	.	.	.
.	8B	.	.	.
.	8AJ	.	.	.
=66	=66	=66	=66	=66
2GG	2.B	0D	2.G	1g
2.GG	.	.	.	.
.	4c	.	4A	.
.	2.d	.	4B	2r
4AA	.	.	4c	.
4BB	.	.	[2d	[2d
4C	8cL	.	.	.
.	8BJ	.	.	.
=67	=67	=67	=67	=67
2.D	1A	[0F	2d]	4d]
.	.	.	.	4e
.	.	.	2d	4f
4E	.	.	.	4g
2F	2r	.	2c	2a
[2BB-X	[2B-X	.	2d	[2d
=68	=68	=68	=68	=68
4BB-]	2B-]	0F]	2d	4d]
4C	.	.	.	4e
4D	2B-i	.	2d	4f
4E	.	.	.	4g
2F	2A	.	2c	2a
2BB-i	2B-i	.	2d	2f
=69	=69	=69	=69	=69
2C	2G	[0E	2.e	2r
2.AA	1A	.	.	2.c
.	.	.	4d	.
.	.	.	2c	.
4BB	.	.	.	4d
4C	2A	.	2c	4e
4D	.	.	.	4f
=70	=70	=70	=70	=70
2E	2G	0E]	2B	2g
2.AA	1A	.	2.e	2.c
4BB	.	.	4d	4d
4C	2A	.	2c	4e
4D	.	.	.	4f
=71	=71	=71	=71	=71
2E	2G	0r	2B	1g
2C	2E	.	2e	.
2D	2F	.	2d	2f
2E	2G	.	4c	[2e
.	.	.	4B	.
=72	=72	=72	=72	=72
1.F	1.A	0r	2A	2e]
.	.	.	2.c	4d
.	.	.	.	4c
.	.	.	.	1d
.	.	.	4B	.
2F	2D	.	[2A	.
=73	=73	=73	=73	=73
0E	2r	0B	2A]	[0el
.	2G	.	4G	.
.	.	.	4F	.
.	2G	.	1G	.
.	2E	.	.	.
=74	=74	=74	=74	=74
[0AA	1.E	1c	1A	0e_
.	.	1A	[1c	.
.	2E	.	.	.
=75	=75	=75	=75	=75
0AA]	[0El	0c	2c]	0e_
.	.	.	2B	.
.	.	.	1A	.
=76	=76	=76	=76	=76
00EEl	00E]	00Bl	00Gl	00e]
==	==	==	==	==
*-	*-	*-	*-	*-
!!!system-decoration: [*]
!!!RDF**kern: i = editorial accidental
!!!RDF**kern: l = terminal long
!!!ENC: Benjamin Ory
!!!END: 2024/12/21
!!!EED: Benjamin Ory
!!!EEV: 2025/02/20
!!!YEC: Copyright 2025 Benjamin Ory, All Rights Reserved
!!!ONB: Translated from MusicXML on 2025/02/20